res/skins/LateNight/buttons/btn_hotcue_1_down.svg

<?xml version="1.0" encoding="UTF-8" standalone="no"?>
<!-- Created with Inkscape (http://www.inkscape.org/) -->

<svg
   xmlns:dc="http://purl.org/dc/elements/1.1/"
   xmlns:cc="http://creativecommons.org/ns#"
   xmlns:rdf="http://www.w3.org/1999/02/22-rdf-syntax-ns#"
   xmlns:svg="http://www.w3.org/2000/svg"
   xmlns="http://www.w3.org/2000/svg"
   xmlns:xlink="http://www.w3.org/1999/xlink"
   xmlns:inkscape="http://www.inkscape.org/namespaces/inkscape"
   version="1.1"
   width="26"
   height="26"
   id="svg2">
  <defs
     id="defs4">
    <inkscape:path-effect
       effect="spiro"
       id="path-effect3950" />
    <inkscape:path-effect
       effect="spiro"
       id="path-effect3946" />
    <linearGradient
       id="linearGradient3801">
      <stop
         id="stop3803"
         style="stop-color:#242424;stop-opacity:1"
         offset="0" />
      <stop
         id="stop3805"
         style="stop-color:#101010;stop-opacity:1"
         offset="1" />
    </linearGradient>
    <linearGradient
       x1="13"
       y1="1027.3622"
       x2="13"
       y2="1049.3622"
       id="linearGradient3807-3"
       xlink:href="#linearGradient3801-6"
       gradientUnits="userSpaceOnUse"
       gradientTransform="translate(0,-1026.3622)" />
    <linearGradient
       id="linearGradient3801-6">
      <stop
         id="stop3803-7"
         style="stop-color:#242424;stop-opacity:1"
         offset="0" />
      <stop
         id="stop3805-5"
         style="stop-color:#101010;stop-opacity:1"
         offset="1" />
    </linearGradient>
    <linearGradient
       x1="13"
       y1="1027.3622"
       x2="13"
       y2="1049.3622"
       id="linearGradient3807-3-3"
       xlink:href="#linearGradient3801-6-5"
       gradientUnits="userSpaceOnUse"
       gradientTransform="translate(0,-1026.3622)" />
    <linearGradient
       id="linearGradient3801-6-5">
      <stop
         id="stop3803-7-6"
         style="stop-color:#222222;stop-opacity:1"
         offset="0" />
      <stop
         id="stop3805-5-2"
         style="stop-color:#131516;stop-opacity:1"
         offset="1" />
    </linearGradient>
    <linearGradient
       x1="15"
       y1="1049.3622"
       x2="15"
       y2="1027.3622"
       id="linearGradient3878"
       xlink:href="#linearGradient3801-6-5"
       gradientUnits="userSpaceOnUse"
       gradientTransform="translate(0,-1026.3622)" />
    <inkscape:path-effect
       effect="spiro"
       id="path-effect3946-1" />
    <inkscape:path-effect
       effect="spiro"
       id="path-effect3950-2" />
    <linearGradient
       x1="13"
       y1="1027.3622"
       x2="13"
       y2="1049.3622"
       id="linearGradient3807-3-7"
       xlink:href="#linearGradient3801-6-0"
       gradientUnits="userSpaceOnUse"
       gradientTransform="translate(0,-1026.3622)" />
    <linearGradient
       id="linearGradient3801-6-0">
      <stop
         id="stop3803-7-9"
         style="stop-color:#242424;stop-opacity:1"
         offset="0" />
      <stop
         id="stop3805-5-3"
         style="stop-color:#101010;stop-opacity:1"
         offset="1" />
    </linearGradient>
    <filter
       color-interpolation-filters="sRGB"
       id="filter4024">
      <feGaussianBlur
         id="feGaussianBlur4026"
         stdDeviation="3" />
    </filter>
    <filter
       color-interpolation-filters="sRGB"
       id="filter4068">
      <feGaussianBlur
         stdDeviation="0.984"
         id="feGaussianBlur4070" />
    </filter>
    <inkscape:path-effect
       effect="spiro"
       id="path-effect3950-2-5" />
    <inkscape:path-effect
       effect="spiro"
       id="path-effect3946-1-1" />
    <inkscape:path-effect
       effect="spiro"
       id="path-effect3950-2-5-2" />
    <inkscape:path-effect
       effect="spiro"
       id="path-effect3946-1-1-0" />
    <inkscape:path-effect
       effect="spiro"
       id="path-effect3950-2-5-2-7" />
    <inkscape:path-effect
       effect="spiro"
       id="path-effect3946-1-1-0-4" />
    <inkscape:path-effect
       effect="spiro"
       id="path-effect3950-2-9" />
    <inkscape:path-effect
       effect="spiro"
       id="path-effect3946-1-2" />
    <linearGradient
       x1="13"
       y1="1027.3622"
       x2="13"
       y2="1049.3622"
       id="linearGradient3807-3-5"
       xlink:href="#linearGradient3801-6-9"
       gradientUnits="userSpaceOnUse"
       gradientTransform="translate(0,-1026.3622)" />
    <linearGradient
       id="linearGradient3801-6-9">
      <stop
         id="stop3803-7-1"
         style="stop-color:#ce0e0e;stop-opacity:1"
         offset="0" />
      <stop
         id="stop4329"
         style="stop-color:#dd0000;stop-opacity:1"
         offset="0.28" />
      <stop
         id="stop3805-5-28"
         style="stop-color:#8d0000;stop-opacity:1"
         offset="1" />
    </linearGradient>
    <inkscape:path-effect
       effect="spiro"
       id="path-effect3950-2-9-0" />
    <inkscape:path-effect
       effect="spiro"
       id="path-effect3946-1-2-6" />
    <linearGradient
       x1="15"
       y1="1049.3622"
       x2="15"
       y2="1027.3622"
       id="linearGradient4308-4"
       xlink:href="#linearGradient3801-6-9-0"
       gradientUnits="userSpaceOnUse"
       gradientTransform="translate(0,-1026.3622)" />
    <linearGradient
       id="linearGradient3801-6-9-0">
      <stop
         id="stop3803-7-1-9"
         style="stop-color:#aa1112;stop-opacity:1"
         offset="0" />
      <stop
         id="stop4329-4"
         style="stop-color:#b60607;stop-opacity:1"
         offset="0.28" />
      <stop
         id="stop3805-5-28-5"
         style="stop-color:#760607;stop-opacity:1"
         offset="1" />
    </linearGradient>
    <linearGradient
       x1="15"
       y1="1049.3622"
       x2="15"
       y2="1027.3622"
       id="linearGradient4370"
       xlink:href="#linearGradient3801-6-9-0"
       gradientUnits="userSpaceOnUse"
       gradientTransform="translate(0,-1026.3622)" />
    <linearGradient
       x1="15"
       y1="1049.3622"
       x2="15"
       y2="1027.3622"
       id="linearGradient4308-3"
       xlink:href="#linearGradient3801-6-9-9"
       gradientUnits="userSpaceOnUse"
       gradientTransform="translate(0,-1026.3622)" />
    <linearGradient
       id="linearGradient3801-6-9-9">
      <stop
         id="stop3803-7-1-95"
         style="stop-color:#ce0e0e;stop-opacity:1"
         offset="0" />
      <stop
         id="stop4329-2"
         style="stop-color:#dd0000;stop-opacity:1"
         offset="0.28" />
      <stop
         id="stop3805-5-28-1"
         style="stop-color:#8d0000;stop-opacity:1"
         offset="1" />
    </linearGradient>
    <linearGradient
       x1="11"
       y1="1027.3622"
       x2="11"
       y2="1049.3622"
       id="linearGradient4650"
       xlink:href="#linearGradient3801-6-9-9"
       gradientUnits="userSpaceOnUse"
       gradientTransform="translate(0,-1026.3622)" />
    <filter
       color-interpolation-filters="sRGB"
       id="filter4068-1-1">
      <feGaussianBlur
         stdDeviation="0.984"
         id="feGaussianBlur4070-3-3" />
    </filter>
    <linearGradient
       x1="15"
       y1="1049.3622"
       x2="15"
       y2="1027.3622"
       id="linearGradient12786"
       xlink:href="#linearGradient3801-6-5"
       gradientUnits="userSpaceOnUse"
       gradientTransform="translate(0,-1026.3622)" />
  </defs>
  <metadata
     id="metadata7">
    <rdf:RDF>
      <cc:Work
         rdf:about="">
        <dc:format>image/svg+xml</dc:format>
        <dc:type
           rdf:resource="http://purl.org/dc/dcmitype/StillImage" />
        <dc:title></dc:title>
      </cc:Work>
    </rdf:RDF>
  </metadata>
  <rect
     width="23"
     height="23.000017"
     rx="2"
     ry="2"
     x="0.5"
     y="0.49998301"
     id="rect3029-9"
     style="color:#000000;fill:url(#linearGradient12786);fill-opacity:1;fill-rule:nonzero;stroke:none;stroke-width:1;marker:none;visibility:visible;display:inline;overflow:visible;enable-background:accumulate" />
  <path
     d="m 10,9.000017 3,0 0,6 -2,0 0,-5 -1,0 0,-1"
     id="path3944-9"
     style="fill:#8d8f90;fill-opacity:1;stroke:none;display:inline" />
  <path
     d="m 13,10.000017 1,0 0,6 -2,0 0,-1 1,0 0,-5"
     id="path3948-7"
     style="fill:#080808;fill-opacity:1;stroke:none;display:inline" />
  <path
     d="M 2,0 C 0.90064862,0 0,0.90064862 0,2 l 0,20 c 0,1.099351 0.90064862,2 2,2 l 20,0 c 1.099351,0 2,-0.900649 2,-2 L 24,2 C 24,0.90064862 23.099351,0 22,0 z M 2.3,1 21.7,1 C 22.262649,1 23,1.7373514 23,2.3 l 0,19.4 C 23,22.262649 22.262649,23 21.7,23 L 2.3,23 C 1.7373514,23 1,22.262649 1,21.7 L 1,2.3 C 1,1.7373514 1.7373514,1 2.3,1 z"
     id="rect3029-96-0-9"
     style="font-size:medium;font-style:normal;font-variant:normal;font-weight:normal;font-stretch:normal;text-indent:0;text-align:start;text-decoration:none;line-height:normal;letter-spacing:normal;word-spacing:normal;text-transform:none;direction:ltr;block-progression:tb;writing-mode:lr-tb;text-anchor:start;baseline-shift:baseline;color:#000000;fill:#454748;fill-opacity:1;fill-rule:nonzero;stroke:none;stroke-width:1;marker:none;visibility:visible;display:inline;overflow:visible;enable-background:accumulate;font-family:Sans;-inkscape-font-specification:Sans" />
  <g
     id="layer2"
     style="display:none">
    <rect
       width="24"
       height="24"
       rx="2"
       ry="2"
       x="2"
       y="2"
       id="rect3029-6"
       style="color:#000000;fill:#060606;fill-opacity:1;fill-rule:nonzero;stroke:none;stroke-width:1;marker:none;visibility:visible;display:inline;overflow:visible;filter:url(#filter4068);enable-background:accumulate" />
    <rect
       width="23"
       height="23.000017"
       rx="2"
       ry="2"
       x="0.5"
       y="0.49998301"
       id="rect3029"
       style="color:#000000;fill:url(#linearGradient3807-3);fill-opacity:1;fill-rule:nonzero;stroke:none;stroke-width:1;marker:none;visibility:visible;display:inline;overflow:visible;enable-background:accumulate" />
    <image
       xlink:href="data:image/png;base64,iVBORw0KGgoAAAANSUhEUgAAABoAAAAaCAYAAACpSkzOAAAABHNCSVQICAgIfAhkiAAAAjpJREFU SIm9lr1uE1EQhb8TIoGE+X2F9Igi7nmAiCYUVjoa3okXiFxFIOgo07oJ75CWCAUKUsyhmPuza68R iDhXtta7d2bOPfNz1jo4OHg9n88/soN1fn7+9vLy8gNwrcVi4dVqtQscDg8PWS6Xr4CLvZ0gjNcL 4Nk+gO2/9hKwzXrL3hPgwT5A2Ii0skAGYyTyQY2CCdRsUR6y2sXYdLSSUQRtz8Ilim3qXQIa2i64 gancuHw2uSWjAoQGAaXmKIQJUAXIJxaouFoFzBlI00DOIFF5GaOGFcVJMlFYyD2U8jR4eCg0kTpH Ht61JEaIKPY15yEngEAOUE1vYYWQnID6U+oGRXRJG8rL6elpMzk5OSl189Alvar/WjPsVUYRJuo1 TNiYICIIm8Vi0Zyurq7S1oEjfVy/NhGBY1uNKoNOqZ90Ys6Ggdw6UW0mPdUM/zKw1d4badsM/t9A 6bMO09eUQmwCVavhTE0BEcVOZdY6Q7dAa0DduQyoKQpRuzGn4/j4DT9+XqdEVfxwzlcNvCU7XYKk KjyEhYoSVIouZ509nOWZi0/BSkZ2ezYpQS4SkF0DyCP9GicwRbQNdm/SlFt7MuNtjnCqeGXf6+Yu YYN7gsEIVL/CO7Y0Q4s+0KuhEkvltzR6hfRyFJGtdVJnOgbamNW16Wjk+s645u7MBqncSN1drDsD 0mw2e3d0dPR+F8HPzs6+3NzcfAI+C3gKvCT/rTy+ZazvwFfgQsA94BHwHLh/y0C/gG/A9W9U7JOh gi8h8gAAAABJRU5ErkJggg== "
       x="31.893093"
       y="1.061859"
       width="26"
       height="26"
       id="image2993" />
    <g
       id="layer6">
      <path
         d="m 10,9.000017 3,0 0,6 -2,0 0,-5 -1,0 0,-1"
         id="path3944"
         style="fill:#bfbfbf;fill-opacity:1;stroke:none;display:inline" />
      <path
         d="m 13,10.000017 1,0 0,6 -2,0 0,-1 1,0 0,-5"
         id="path3948"
         style="fill:#060606;fill-opacity:1;stroke:none;display:inline" />
    </g>
    <path
       d="M 2,0 C 0.90064862,0 0,0.90064862 0,2 l 0,20 c 0,1.099351 0.90064862,2 2,2 l 20,0 c 1.099351,0 2,-0.900649 2,-2 L 24,2 C 24,0.90064862 23.099351,0 22,0 z M 2.3,1 21.7,1 C 22.262649,1 23,1.7373514 23,2.3 l 0,19.4 C 23,22.262649 22.262649,23 21.7,23 L 2.3,23 C 1.7373514,23 1,22.262649 1,21.7 L 1,2.3 C 1,1.7373514 1.7373514,1 2.3,1 z"
       id="rect3029-96-0"
       style="font-size:medium;font-style:normal;font-variant:normal;font-weight:normal;font-stretch:normal;text-indent:0;text-align:start;text-decoration:none;line-height:normal;letter-spacing:normal;word-spacing:normal;text-transform:none;direction:ltr;block-progression:tb;writing-mode:lr-tb;text-anchor:start;baseline-shift:baseline;color:#000000;fill:#585858;fill-opacity:1;fill-rule:nonzero;stroke:none;stroke-width:1;marker:none;visibility:visible;display:inline;overflow:visible;enable-background:accumulate;font-family:Sans;-inkscape-font-specification:Sans" />
  </g>
  <g
     id="layer5"
     style="display:none">
    <image
       xlink:href="data:image/png;base64,iVBORw0KGgoAAAANSUhEUgAAABoAAAAaCAYAAACpSkzOAAAABHNCSVQICAgIfAhkiAAAARNJREFU SInd1jFuwjAUxvF/UqPSCglW5kZMDD0Dl+jQzhnZcwY2BgYuAKfgBjDBQC+AhFQJCZYqxu0QJ6Jl wI54QeJJUby8/PTZ0UuCwfvHbh9FTQTqab0+JNPJK7BR+yhqdodDCYdlv98AesBMASitRSBbHWCR QcejJKSAsIpEhYY8c7dQWhXkksiMx8U6jGNvKMyhS5c5efhIp049Z4lct+7R3o1Hzx/I9WXIoR+P nlJQXqYqqHQi10m3jWMmOjsd3+moINsK13pTNXx7Ckh0dt8E8t2G0pDUUH34D0klOoOkzqh2Cn2v Vod6kjQkoK/5PMXO5AB4Ifsl6mATXrE08AnMAuAZaAMt7GfjimWAHbD5BUafXngmyssWAAAAAElF TkSuQmCC "
       x="28"
       y="-24"
       width="26"
       height="26"
       transform="scale(1,-1)"
       id="image3026" />
    <rect
       width="23"
       height="23.000017"
       rx="1.5"
       ry="1.5"
       x="0.5"
       y="0.49998301"
       id="rect3029-96-4"
       style="color:#000000;fill:url(#linearGradient4370);fill-opacity:1;fill-rule:nonzero;stroke:none;stroke-width:1;marker:none;visibility:visible;display:inline;overflow:visible;enable-background:accumulate" />
    <g
       id="layer9"
       style="display:inline">
      <path
         d="m 10,9 3,0 0,6 -2,0 0,-5 -1,0 0,-1"
         id="path3944-9-6"
         style="fill:#8d8f90;fill-opacity:1;stroke:none;display:inline" />
      <path
         d="m 13,10 1,0 0,6 -2,0 0,-1 1,0 0,-5"
         id="path3948-7-8"
         style="fill:#320202;fill-opacity:1;stroke:none;display:inline" />
    </g>
    <path
       d="M 2,0 C 0.90064862,0 0,0.90064862 0,2 l 0,20 c 0,1.099351 0.90064862,2 2,2 l 20,0 c 1.099351,0 2,-0.900649 2,-2 L 24,2 C 24,0.90064862 23.099351,0 22,0 z M 2.3,1 21.7,1 C 22.262649,1 23,1.7373514 23,2.3 l 0,19.4 C 23,22.262649 22.262649,23 21.7,23 L 2.3,23 C 1.7373514,23 1,22.262649 1,21.7 L 1,2.3 C 1,1.7373514 1.7373514,1 2.3,1 z"
       id="rect3029-96-9"
       style="font-size:medium;font-style:normal;font-variant:normal;font-weight:normal;font-stretch:normal;text-indent:0;text-align:start;text-decoration:none;line-height:normal;letter-spacing:normal;word-spacing:normal;text-transform:none;direction:ltr;block-progression:tb;writing-mode:lr-tb;text-anchor:start;baseline-shift:baseline;color:#000000;fill:#979797;fill-opacity:1;fill-rule:nonzero;stroke:none;stroke-width:1;marker:none;visibility:visible;display:inline;overflow:visible;enable-background:accumulate;font-family:Sans;-inkscape-font-specification:Sans" />
  </g>
  <g
     id="layer4"
     style="display:none">
    <rect
       width="24"
       height="24"
       rx="2"
       ry="2"
       x="2"
       y="2"
       id="rect3029-6-1"
       style="color:#000000;fill:#060606;fill-opacity:1;fill-rule:nonzero;stroke:none;stroke-width:1;marker:none;visibility:visible;display:inline;overflow:visible;filter:url(#filter4068-1-1);enable-background:accumulate" />
    <image
       xlink:href="data:image/png;base64,iVBORw0KGgoAAAANSUhEUgAAABoAAAAaCAYAAACpSkzOAAAABHNCSVQICAgIfAhkiAAAAQVJREFU SInd1rEKgkAcx/GvZhEh1NocOEpbq/Qe7fUEjc09QAQ+QU8hNtZQe3tEUw1BkGYNXmE15Fkn1B/k bvn74Xf8OdUmvd5+Z9tVFJS5XB46rtsENsbOtqutfl+Fw2w4NIE24BkAxSBQAomygEUMhaFKyAD0 PBLdNdQzfwud8oLSJDr7/n1fcBxpSL9B754o8fJByp5kSR1dWayRRM8DlHYYkpDsAGWaukteUOZE aW+6teMwEnvZ29EAOEs0dMUq05MJylpSR/cx9POJCs+QqkQvkKpEpSR0nM8PlfHYVAFtp9OAOEek AQ3iXyILkfCLFQIrwNOAClAHaojPxhcrAvbA5gof+Fm+AyRNhgAAAABJRU5ErkJggg== "
       x="28"
       y="0"
       width="26"
       height="26"
       id="image3015" />
    <rect
       width="23"
       height="23.000017"
       rx="1.5"
       ry="1.5"
       x="0.5"
       y="0.49998301"
       id="rect3029-96-3"
       style="color:#000000;fill:url(#linearGradient4650);fill-opacity:1;fill-rule:nonzero;stroke:none;stroke-width:1;marker:none;visibility:visible;display:inline;overflow:visible;enable-background:accumulate" />
    <path
       d="M 2,0 C 0.90064862,0 0,0.90064862 0,2 l 0,20 c 0,1.099351 0.90064862,2 2,2 l 20,0 c 1.099351,0 2,-0.900649 2,-2 L 24,2 C 24,0.90064862 23.099351,0 22,0 z M 2.3,1 21.7,1 C 22.262649,1 23,1.7373514 23,2.3 l 0,19.4 C 23,22.262649 22.262649,23 21.7,23 L 2.3,23 C 1.7373514,23 1,22.262649 1,21.7 L 1,2.3 C 1,1.7373514 1.7373514,1 2.3,1 z"
       id="rect3029-96"
       style="font-size:medium;font-style:normal;font-variant:normal;font-weight:normal;font-stretch:normal;text-indent:0;text-align:start;text-decoration:none;line-height:normal;letter-spacing:normal;word-spacing:normal;text-transform:none;direction:ltr;block-progression:tb;writing-mode:lr-tb;text-anchor:start;baseline-shift:baseline;color:#000000;fill:#979797;fill-opacity:1;fill-rule:nonzero;stroke:none;stroke-width:1;marker:none;visibility:visible;display:inline;overflow:visible;enable-background:accumulate;font-family:Sans;-inkscape-font-specification:Sans" />
    <g
       id="layer8"
       style="display:inline">
      <path
         d="m 10,9.000017 3,0 0,6 -2,0 0,-5 -1,0 0,-1"
         id="path3944-4"
         style="fill:#bfbfbf;fill-opacity:1;stroke:none;display:inline" />
      <path
         d="m 13,10.000017 1,0 0,6 -2,0 0,-1 1,0 0,-5"
         id="path3948-4"
         style="fill:#3d0000;fill-opacity:1;stroke:none;display:inline" />
    </g>
  </g>
</svg>

<svg id="svg2" width="26" height="26" version="1.1" xmlns="http://www.w3.org/2000/svg"><defs id="defs4"><linearGradient id="linearGradient12786" x1="15" x2="15" y1="1049.4" y2="1027.4" gradientTransform="translate(0 -1026.4)" gradientUnits="userSpaceOnUse"><stop id="stop3803-7-6" stop-color="#222" offset="0"/><stop id="stop3805-5-2" stop-color="#131516" offset="1"/></linearGradient></defs><rect id="rect3029-9" x=".5" y=".49998" width="23" height="23" rx="2" ry="2" color="#000000" fill="url(#linearGradient12786)"/><path id="path3944-9" d="m10 9h3v6h-2v-5h-1v-1" fill="#8d8f90"/><path id="path3948-7" d="m13 10h1v6h-2v-1h1v-5" fill="#080808"/><path id="rect3029-96-0-9" d="m2 0c-1.0994 0-2 0.90065-2 2v20c0 1.0994 0.90065 2 2 2h20c1.0994 0 2-0.90065 2-2v-20c0-1.0994-0.90065-2-2-2zm0.3 1h19.4c0.56265 0 1.3 0.73735 1.3 1.3v19.4c0 0.56265-0.73735 1.3-1.3 1.3h-19.4c-0.56265 0-1.3-0.73735-1.3-1.3v-19.4c0-0.56265 0.73735-1.3 1.3-1.3z" color="#000000" fill="#454748" style="block-progression:tb;text-indent:0;text-transform:none"/></svg>
